X:1
T:James Gibb editions
T:If life's pleasures cheer thee - Barnby
%%score [ ( 1 2 ) ( 3 4 ) ]
L:1/8
Q:1/4=90
M:4/4
K:C
V:1 treble nm="Midi_74"
V:2 treble 
V:3 bass nm="Midi_74"
V:4 bass 
V:1
[K:Bb]"^If life's pleasures cheer thee""^Joseph Barnby\n(1838-96)""^65. 65. 87. 87" d2 d2 e2 d2 | %1
 c4 d4 z8 | B2 B2 c2 d2 z8 | c8 z8 | d2 d2 e2 d2 z8 | c4 d4 z8 | c2 FG A2 G2 z8 | F6 ||!mf! F2 | %9
[M:4/4] F2 A2"^cresc." B2 A2 | B2 c2 d2 || B2 | e3 e d2 =B2 | =B4 c2 || f2 | d2 c2 B2 d2 | %16
 B2 A2 G2 ||!ff! G2 | F2 F2 B2 d2 | c4 !fermata!B4 || B4 B4 |] %21
V:2
[K:Bb] F2 F2 G2 F2 | F4 F4 x8 | E2 F2 F2 F2 x8 | F8 x8 | F2 G2 G2 F2 x8 | F4 (F2 =E2) x8 | %6
 F2 F2 F2 =E2 x8 | F6 || F2 |[M:4/4] F2 F2 F2 F2 | F2 E2 D2 || F2 | E2 G2 F2 D2 | D4 E2 || F2 | %15
 F2 E2 D2 D2 | D2 ^F2 G2 || C2 | D2 F2 F2 F2 | E4 D4 || E4 D4 |] %21
V:3
[K:Bb] B,2 B,2 B,2 B,2 | A,4 B,4 z8 | G,2 B,2 A,2 B,2 z8 | A,8 z8 | B,2 B,2 B,2 B,2 z8 | %5
 (B,2 A,2) (B,2 G,2) z8 | A,2 A,B, C2 B,2 z8 | A,6 || A,2 |[M:4/4] B,2 C2 B,2 C2 | B,2 A,2 B,2 || %11
 B,2 | B,3 B, _A,2 G,2 | G,4 G,2 || C2 | B,2 A,2 B,2 A,2 | B,2 C2 B,2 || B,2 | B,2 F,2 F,2 B,2 | %19
 (B,2 A,2) B,4 || G,4 F,4 |] %21
V:4
[K:Bb] B,,2 B,,2 E,2 B,,2 | F,4 B,,4 x8 | E,2 D,2 C,2 B,,2 x8 | F,8 x8 | B,2 G,2 E,2 B,,2 x8 | %5
 F,4 B,,4 x8 | A,,2 D,2 C,2 C,2 x8 | F,6 || F,2 |[M:4/4] F,2 E,2 D,2 E,2 | D,2 C,2 B,,2 || _A,2 | %12
 G,2 E,2 F,2 G,2 | C,4 C,2 || A,,2 | B,,2 F,2 G,2 ^F,2 | G,2 D,2 E,2 || =E,2 | F,2 F,2 D,2 B,,2 | %19
 F,4 !fermata!B,,4 || E,4 B,,4 |] %21

